;FLAVOR:Marlin
;TIME:1657
;Filament used: 2.86842m
;Layer height: 0.3
;MINX:-170
;MINY:-33.371
;MINZ:0.3
;MAXX:47.38
;MAXY:45.383
;MAXZ:15
;Generated with Cura_SteamEngine 4.5.0
M140 S70
M105
M190 S70
M104 S215
M105
M109 S215
M82 ;absolute extrusion mode
G28 ;Home
;Prime the extruder
G92 E0
G1 F200 E3
G92 E0
G92 E0
G92 E0
G1 F600 E-1
;LAYER_COUNT:50
;LAYER:0
M107
G0 F4500 X10.823 Y-31.567 Z0.3
;TYPE:SKIRT
G1 F600 E0
G1 F3000 X11.455 Y-31.349 E0.03335
G1 X12.298 Y-31.038 E0.07818
G1 X13.274 Y-30.624 E0.13107
G1 X14.751 Y-29.939 E0.2123
G1 X15.605 Y-29.514 E0.25989
G1 X16.495 Y-29.017 E0.31075
G1 X17.323 Y-28.523 E0.35885
G1 X17.938 Y-28.147 E0.39481
G1 X18.592 Y-27.729 E0.43354
G1 X19.571 Y-27.038 E0.49332
G1 X20.319 Y-26.472 E0.54012
G1 X20.927 Y-26.003 E0.57843
G1 X21.398 Y-25.625 E0.60856
G1 X21.869 Y-25.225 E0.63939
G1 X22.66 Y-24.512 E0.69251
G1 X24.775 Y-22.66 E0.83277
G1 X26.955 Y-20.858 E0.97388
G1 X29.167 Y-19.132 E1.11385
G1 X31.436 Y-17.463 E1.25438
G1 X33.761 Y-15.852 E1.3955
G1 X36.109 Y-14.321 E1.53534
G1 X39.559 Y-12.237 E1.73643
G1 X40.253 Y-11.839 E1.77634
G1 X41.359 Y-11.177 E1.84065
G1 X41.789 Y-10.886 E1.86655
G1 X42.522 Y-10.324 E1.91264
G1 X43.051 Y-9.859 E1.94777
G1 X43.785 Y-9.133 E1.99928
G1 X44.43 Y-8.386 E2.04852
G1 X44.893 Y-7.777 E2.08669
G1 X45.215 Y-7.299 E2.11544
G1 X45.583 Y-6.69 E2.15094
G1 X45.991 Y-5.951 E2.19305
G1 X46.42 Y-4.981 E2.24597
G1 X46.724 Y-4.143 E2.29044
G1 X46.919 Y-3.442 E2.32674
G1 X47.101 Y-2.699 E2.36491
G1 X47.224 Y-1.986 E2.40101
G1 X47.33 Y-1.064 E2.44731
G1 X47.367 Y-.502 E2.47541
G1 X47.38 Y0.134 E2.50714
G1 X47.364 Y0.722 E2.53649
G1 X47.269 Y1.764 E2.58869
G1 X47.034 Y3.05 E2.65391
G1 X46.637 Y4.481 E2.728
G1 X46.463 Y5.056 E2.75797
G1 X45.695 Y7.778 E2.89908
G1 X45.007 Y10.509 E3.03958
G1 X44.398 Y13.249 E3.17962
G1 X43.864 Y16.026 E3.3207
G1 X43.445 Y18.573 E3.44948
G1 X43.271 Y19.755 E3.50908
G1 X43.167 Y20.398 E3.54158
G1 X42.946 Y21.397 E3.59263
G1 X42.767 Y22.027 E3.6253
G1 X42.492 Y22.794 E3.66595
G1 X42.167 Y23.569 E3.70788
G1 X41.72 Y24.448 E3.75708
G1 X41.31 Y25.15 E3.79764
G1 X40.808 Y25.892 E3.84233
G1 X40.061 Y26.824 E3.90192
G1 X39.389 Y27.546 E3.95113
G1 X38.841 Y28.041 E3.98797
G1 X38.332 Y28.474 E4.02131
G1 X37.923 Y28.789 E4.04707
G1 X37.167 Y29.306 E4.09276
G1 X36.619 Y29.655 E4.12517
G1 X34.268 Y31.196 E4.26542
G1 X31.956 Y32.807 E4.406
G1 X29.682 Y34.489 E4.54711
G1 X27.475 Y36.221 E4.68708
G1 X25.3 Y38.029 E4.82819
G1 X23.185 Y39.89 E4.96874
G1 X22.066 Y40.919 E5.04458
G1 X21.506 Y41.442 E5.08281
G1 X20.669 Y42.192 E5.13888
G1 X20.184 Y42.59 E5.17018
G1 X19.048 Y43.377 E5.23913
G1 X18.416 Y43.738 E5.27544
G1 X17.794 Y44.065 E5.3105
G1 X17.329 Y44.272 E5.33589
G1 X16.215 Y44.702 E5.39546
G1 X15.601 Y44.894 E5.42756
G1 X15.08 Y45.029 E5.45441
G1 X14.161 Y45.212 E5.50116
G1 X13.301 Y45.32 E5.5444
G1 X12.527 Y45.373 E5.58311
G1 X11.865 Y45.383 E5.61614
G1 X11.273 Y45.364 E5.64569
G1 X10.573 Y45.316 E5.68069
G1 X9.42 Y45.142 E5.73887
G1 X6.373 Y44.608 E5.8932
G1 X3.577 Y44.202 E6.03416
G1 X0.778 Y43.876 E6.17474
G1 X-2.017 Y43.631 E6.31472
G1 X-4.829 Y43.465 E6.45526
G1 X-7.656 Y43.377 E6.59637
G1 X-10.473 Y43.37 E6.73691
G1 X-11.758 Y43.385 E6.80102
G1 X-12.727 Y43.364 E6.84938
G1 X-13.427 Y43.316 E6.88438
G1 X-14.325 Y43.184 E6.92966
G1 X-15.21 Y42.999 E6.97477
G1 X-15.986 Y42.78 E7.015
G1 X-16.728 Y42.52 E7.05422
G1 X-18.079 Y41.955 E7.12728
G1 X-19.743 Y41.22 E7.21804
G1 X-22.34 Y40.159 E7.358
G1 X-24.977 Y39.168 E7.49854
G1 X-27.64 Y38.252 E7.63904
G1 X-30.34 Y37.409 E7.78016
G1 X-33.041 Y36.648 E7.92016
G1 X-35.773 Y35.961 E8.0607
G1 X-38.535 Y35.349 E8.20184
G1 X-41.293 Y34.819 E8.34195
G1 X-44.081 Y34.365 E8.48288
G1 X-46.862 Y33.992 E8.62287
G1 X-49.67 Y33.698 E8.76372
G1 X-52.471 Y33.482 E8.90388
G1 X-55.68 Y33.335 E9.06415
G1 X-56.787 Y33.252 E9.11953
G1 X-57.869 Y33.137 E9.17381
G1 X-58.474 Y33.066 E9.2042
G1 X-59.139 Y32.976 E9.23768
G1 X-59.781 Y32.871 E9.27014
G1 X-60.366 Y32.757 E9.29987
G1 X-61.504 Y32.509 E9.35798
G1 X-62.94 Y32.159 E9.43172
G1 X-63.866 Y31.877 E9.48001
G1 X-64.387 Y31.705 E9.50739
G1 X-65.48 Y31.331 E9.56502
G1 X-66.201 Y31.065 E9.60336
G1 X-67.265 Y30.618 E9.66094
G1 X-68.259 Y30.161 E9.71552
G1 X-68.779 Y29.916 E9.7442
G1 X-69.598 Y29.508 E9.78985
G1 X-70.503 Y29.002 E9.84158
G1 X-71.377 Y28.48 E9.89237
G1 X-71.93 Y28.143 E9.92467
G1 X-72.662 Y27.673 E9.96807
G1 X-73.541 Y27.051 E10.0218
G1 X-74.406 Y26.397 E10.0759
G1 X-74.915 Y26.004 E10.10798
G1 X-75.436 Y25.585 E10.14134
G1 X-75.825 Y25.253 E10.16685
G1 X-76.349 Y24.781 E10.20203
G1 X-77.11 Y24.063 E10.25423
G1 X-77.61 Y23.584 E10.28878
G1 X-78.152 Y23.039 E10.32712
G1 X-78.92 Y22.194 E10.38409
G1 X-80.001 Y20.918 E10.46753
G1 X-80.476 Y20.325 E10.50543
G1 X-81.13 Y19.432 E10.56065
G1 X-81.424 Y19.006 E10.58648
G1 X-82.131 Y17.953 E10.64975
G1 X-82.459 Y17.441 E10.68009
G1 X-82.773 Y16.918 E10.71052
G1 X-83.085 Y16.362 E10.74233
G1 X-83.88 Y14.86 E10.82712
G1 X-84.227 Y14.157 E10.86623
G1 X-84.691 Y13.104 E10.92364
G1 X-85.131 Y12.008 E10.98256
G1 X-85.315 Y11.535 E11.00788
G1 X-85.601 Y10.753 E11.04942
G1 X-85.946 Y9.65 E11.10708
G1 X-86.387 Y8.048 E11.18998
G1 X-86.574 Y7.292 E11.22883
G1 X-86.799 Y6.161 E11.28636
G1 X-86.981 Y5.067 E11.34169
G1 X-87.19 Y3.578 E11.41671
G1 X-87.273 Y2.576 E11.46687
G1 X-87.362 Y0.9 E11.5506
G1 X-87.381 Y0.173 E11.58688
G1 X-87.36 Y-.956 E11.64322
G1 X-87.298 Y-2.137 E11.70222
G1 X-87.262 Y-2.725 E11.73161
G1 X-87.197 Y-3.515 E11.77116
G1 X-87.046 Y-4.664 E11.82897
G1 X-86.876 Y-5.716 E11.88214
G1 X-86.781 Y-6.267 E11.91004
G1 X-86.637 Y-7.015 E11.94804
G1 X-86.527 Y-7.504 E11.97304
G1 X-86.376 Y-8.107 E12.00406
G1 X-86.079 Y-9.187 E12.05994
G1 X-85.923 Y-9.735 E12.08836
G1 X-85.656 Y-10.596 E12.13334
G1 X-85.3 Y-11.587 E12.18587
G1 X-84.858 Y-12.703 E12.24576
G1 X-84.337 Y-13.93 E12.31226
G1 X-83.825 Y-14.978 E12.37045
G1 X-83.068 Y-16.4 E12.45082
G1 X-82.683 Y-17.079 E12.48977
G1 X-82.064 Y-18.064 E12.54781
G1 X-81.494 Y-18.909 E12.59866
G1 X-81.073 Y-19.522 E12.63576
G1 X-80.68 Y-20.068 E12.66932
G1 X-79.995 Y-20.936 E12.72449
G1 X-79.648 Y-21.352 E12.75151
G1 X-78.809 Y-22.331 E12.81584
G1 X-78.46 Y-22.72 E12.84191
G1 X-78.011 Y-23.195 E12.87452
G1 X-77.542 Y-23.661 E12.90751
G1 X-76.808 Y-24.361 E12.95811
G1 X-76.299 Y-24.837 E12.99288
G1 X-75.748 Y-25.331 E13.0298
G1 X-74.887 Y-26.035 E13.08528
G1 X-73.537 Y-27.062 E13.16991
G1 X-72.798 Y-27.59 E13.21522
G1 X-71.959 Y-28.138 E13.26522
G1 X-71.039 Y-28.695 E13.31887
G1 X-70.447 Y-29.046 E13.35321
G1 X-69.857 Y-29.379 E13.38701
G1 X-69.369 Y-29.638 E13.41457
G1 X-68.774 Y-29.93 E13.44764
G1 X-67.711 Y-30.424 E13.50612
G1 X-66.421 Y-30.988 E13.57636
G1 X-65.341 Y-31.391 E13.63387
G1 X-63.854 Y-31.889 E13.71211
G1 X-62.958 Y-32.163 E13.75885
G1 X-61.9 Y-32.428 E13.81327
G1 X-60.97 Y-32.636 E13.86081
G1 X-60.383 Y-32.76 E13.89074
G1 X-59.391 Y-32.949 E13.94112
G1 X-58.41 Y-33.085 E13.99053
G1 X-57.214 Y-33.217 E14.05056
G1 X-55.884 Y-33.332 E14.11717
G1 X-54.812 Y-33.368 E14.17068
G1 X-53.717 Y-33.371 E14.22531
G1 X-53.177 Y-33.367 E14.25225
G1 X-52.244 Y-33.341 E14.29882
G1 X-51.215 Y-33.262 E14.3503
G1 X-50.112 Y-33.145 E14.40564
G1 X-49.366 Y-33.057 E14.44312
G1 X-48.723 Y-32.967 E14.47551
G1 X-46.785 Y-32.601 E14.57391
G1 X-45.027 Y-32.252 E14.66332
G1 X-42.256 Y-31.783 E14.80354
G1 X-39.466 Y-31.391 E14.9441
G1 X-36.655 Y-31.076 E15.08522
G1 X-33.848 Y-30.843 E15.22574
G1 X-31.046 Y-30.689 E15.36574
G1 X-28.22 Y-30.614 E15.50678
G1 X-25.414 Y-30.619 E15.64677
G1 X-22.587 Y-30.704 E15.78788
G1 X-19.774 Y-30.867 E15.92845
G1 X-16.977 Y-31.11 E16.06852
G1 X-14.181 Y-31.433 E16.20894
G1 X-11.381 Y-31.837 E16.35008
G1 X-8.612 Y-32.316 E16.49028
G1 X-6.558 Y-32.727 E16.59479
G1 X-5.411 Y-32.946 E16.65304
G1 X-4.41 Y-33.085 E16.70346
G1 X-3.214 Y-33.217 E16.76349
G1 X-1.884 Y-33.332 E16.8301
G1 X-.812 Y-33.368 E16.88361
G1 X0.283 Y-33.371 E16.93824
G1 X0.823 Y-33.367 E16.96518
G1 X1.756 Y-33.341 E17.01175
G1 X2.785 Y-33.262 E17.06323
G1 X3.888 Y-33.145 E17.11857
G1 X4.634 Y-33.057 E17.15605
G1 X5.277 Y-32.967 E17.18844
G1 X6.451 Y-32.75 E17.248
G1 X7.46 Y-32.528 E17.29955
G1 X8.213 Y-32.355 E17.33809
G1 X8.716 Y-32.229 E17.36396
G1 X10.234 Y-31.765 E17.44315
G1 X10.823 Y-31.567 E17.47416
G0 F4500 X11.049 Y-31.069
G1 F3000 X11.974 Y-30.743 E17.52309
G1 X12.22 Y-30.648 E17.53624
G1 X12.608 Y-30.486 E17.55722
G1 X13.139 Y-30.248 E17.58625
G1 X14.413 Y-29.659 E17.65627
G1 X15.191 Y-29.286 E17.69932
G1 X15.489 Y-29.132 E17.71605
G1 X15.814 Y-28.953 E17.73457
G1 X16.399 Y-28.611 E17.76837
G1 X17.481 Y-27.961 E17.83135
G1 X18.282 Y-27.464 E17.87838
G1 X18.517 Y-27.309 E17.89242
G1 X18.868 Y-27.063 E17.9138
G1 X19.353 Y-26.703 E17.94394
G1 X20.437 Y-25.88 E18.01184
G1 X21.137 Y-25.332 E18.05619
G1 X21.365 Y-25.144 E18.07093
G1 X21.645 Y-24.898 E18.08953
G1 X22.317 Y-24.277 E18.13518
G1 X24.315 Y-22.485 E18.26908
G1 X26.364 Y-20.754 E18.4029
G1 X28.465 Y-19.084 E18.5368
G1 X30.614 Y-17.478 E18.67064
G1 X32.81 Y-15.936 E18.80451
G1 X35.051 Y-14.461 E18.93836
G1 X37.335 Y-13.053 E19.07222
G1 X39.825 Y-11.623 E19.21548
G1 X39.881 Y-11.592 E19.21867
G1 X40.37 Y-11.323 E19.24652
G1 X40.674 Y-11.145 E19.26409
G1 X40.681 Y-11.141 E19.26449
G1 X40.898 Y-11.005 E19.27727
G1 X41.07 Y-10.898 E19.28738
G1 X41.294 Y-10.75 E19.30077
G1 X41.507 Y-10.605 E19.31363
G1 X41.795 Y-10.398 E19.33132
G1 X42.029 Y-10.219 E19.34602
G1 X42.191 Y-10.087 E19.35645
G1 X42.243 Y-10.044 E19.35981
G1 X42.677 Y-9.669 E19.38843
G1 X42.785 Y-9.566 E19.39587
G1 X42.879 Y-9.478 E19.4023
G1 X42.964 Y-9.401 E19.40802
G1 X43.188 Y-9.188 E19.42344
G1 X43.462 Y-8.906 E19.44306
G1 X43.634 Y-8.719 E19.45573
G1 X43.898 Y-8.414 E19.47586
G1 X44.164 Y-8.088 E19.49685
G1 X44.231 Y-8.002 E19.50229
G1 X44.394 Y-7.794 E19.51547
G1 X44.586 Y-7.532 E19.53168
G1 X44.767 Y-7.272 E19.54748
G1 X44.929 Y-7.023 E19.5623
G1 X44.943 Y-6.998 E19.56373
G1 X45.029 Y-6.854 E19.5721
G1 X45.232 Y-6.526 E19.59134
G1 X45.438 Y-6.166 E19.61204
G1 X45.444 Y-6.156 E19.61262
G1 X45.535 Y-5.984 E19.62233
G1 X45.565 Y-5.928 E19.6255
G1 X45.703 Y-5.651 E19.64094
G1 X45.853 Y-5.327 E19.65875
G1 X46.054 Y-4.843 E19.6849
G1 X46.144 Y-4.609 E19.6974
G1 X46.293 Y-4.197 E19.71926
G1 X46.328 Y-4.1 E19.72441
G1 X46.411 Y-3.847 E19.73769
G1 X46.459 Y-3.687 E19.74602
G1 X46.509 Y-3.491 E19.75612
G1 X46.608 Y-3.116 E19.77547
G1 X46.677 Y-2.805 E19.79136
G1 X46.74 Y-2.523 E19.80577
G1 X46.804 Y-2.19 E19.82269
G1 X46.849 Y-1.92 E19.83635
G1 X46.865 Y-1.794 E19.84268
G1 X46.868 Y-1.772 E19.84379
G1 X46.958 Y-.819 E19.89155
G1 X46.977 Y-.54 E19.9055
G1 X46.992 Y-.141 E19.92542
G1 X46.992 Y-0.095 E19.92772
G1 X46.987 Y0.288 E19.94683
G1 X46.967 Y0.756 E19.9702
G1 X46.954 Y0.959 E19.98034
G1 X46.94 Y1.126 E19.9887
G1 X46.93 Y1.252 E19.99501
G1 X46.903 Y1.537 E20.00929
G1 X46.868 Y1.817 E20.02337
G1 X46.811 Y2.187 E20.04205
G1 X46.805 Y2.223 E20.04387
G1 X46.762 Y2.456 E20.05569
G1 X46.752 Y2.509 E20.05838
G1 X46.679 Y2.835 E20.07505
G1 X46.605 Y3.135 E20.09046
G1 X46.554 Y3.329 E20.10047
G1 X46.463 Y3.667 E20.11793
G1 X46.289 Y4.246 E20.1481
G1 X46.216 Y4.494 E20.16099
G1 X46.142 Y4.73 E20.17333
G1 X46.068 Y4.974 E20.18605
G1 X46.073 Y4.976 E20.18632
G1 X46.058 Y5.025 E20.18888
G1 X45.743 Y6.047 E20.24223
G1 X45.029 Y8.633 E20.37608
G1 X44.392 Y11.24 E20.50997
G1 X43.833 Y13.864 E20.64382
G1 X43.353 Y16.504 E20.77769
G1 X42.952 Y19.157 E20.91155
G1 X42.87 Y19.799 E20.94384
G1 X42.822 Y20.106 E20.95934
G1 X42.739 Y20.552 E20.98197
G1 X42.685 Y20.801 E20.99469
G1 X42.666 Y20.886 E20.99903
G1 X42.554 Y21.329 E21.02183
G1 X42.464 Y21.661 E21.03899
G1 X42.321 Y22.136 E21.06374
G1 X42.317 Y22.149 E21.06442
G1 X42.241 Y22.362 E21.0757
G1 X42.192 Y22.486 E21.08235
G1 X42.085 Y22.762 E21.09712
G1 X41.942 Y23.1 E21.11543
G1 X41.844 Y23.334 E21.12809
G1 X41.737 Y23.57 E21.14101
G1 X41.593 Y23.864 E21.15735
G1 X41.461 Y24.119 E21.17167
G1 X41.212 Y24.561 E21.19698
G1 X41.193 Y24.595 E21.19892
G1 X41.129 Y24.7 E21.20506
G1 X40.85 Y25.138 E21.23097
G1 X40.775 Y25.256 E21.23794
G1 X40.654 Y25.435 E21.24872
G1 X40.625 Y25.478 E21.25131
G1 X40.435 Y25.741 E21.2675
G1 X40.405 Y25.783 E21.27007
G1 X40.175 Y26.086 E21.28905
G1 X39.657 Y26.686 E21.3286
G1 X39.345 Y27.032 E21.35184
G1 X39.336 Y27.042 E21.35251
G1 X39.245 Y27.136 E21.35904
G1 X39.157 Y27.223 E21.36521
G1 X39.04 Y27.336 E21.37333
G1 X38.794 Y27.563 E21.39003
G1 X38.487 Y27.829 E21.41029
G1 X38.295 Y27.997 E21.42302
G1 X38.004 Y28.236 E21.44181
G1 X37.811 Y28.386 E21.454
G1 X37.562 Y28.568 E21.46939
G1 X37.306 Y28.744 E21.48489
G1 X37.04 Y28.916 E21.50069
G1 X36.512 Y29.246 E21.53176
G1 X36.31 Y29.367 E21.54351
G1 X36.302 Y29.372 E21.54398
G1 X36.304 Y29.376 E21.5442
G1 X35.491 Y29.884 E21.59203
G1 X35.394 Y29.946 E21.59777
G1 X33.155 Y31.425 E21.73164
G1 X30.961 Y32.97 E21.86552
G1 X28.814 Y34.579 E21.99938
G1 X26.716 Y36.252 E22.13325
G1 X24.668 Y37.986 E22.26713
G1 X22.674 Y39.781 E22.40098
G1 X21.889 Y40.534 E22.45525
G1 X21.881 Y40.541 E22.45578
G1 X21.835 Y40.585 E22.45896
G1 X21.797 Y40.622 E22.4616
G1 X21.673 Y40.737 E22.47004
G1 X21.187 Y41.2 E22.50353
G1 X21.068 Y41.309 E22.51158
G1 X20.732 Y41.621 E22.53445
G1 X20.287 Y42.005 E22.56378
G1 X19.995 Y42.242 E22.58254
G1 X19.772 Y42.413 E22.59656
G1 X19.532 Y42.586 E22.61132
G1 X19.447 Y42.644 E22.61646
G1 X19.194 Y42.818 E22.63177
G1 X19.193 Y42.819 E22.63185
G1 X19.136 Y42.856 E22.63524
G1 X18.819 Y43.06 E22.65404
G1 X18.562 Y43.208 E22.66884
G1 X18.291 Y43.367 E22.68451
G1 X18.017 Y43.515 E22.70005
G1 X17.939 Y43.558 E22.70449
G1 X17.736 Y43.66 E22.71583
G1 X17.547 Y43.752 E22.72632
G1 X17.445 Y43.798 E22.7319
G1 X17.356 Y43.835 E22.73671
G1 X16.866 Y44.04 E22.76321
G1 X16.769 Y44.081 E22.76846
G1 X16.581 Y44.153 E22.7785
G1 X16.402 Y44.222 E22.78807
G1 X16.367 Y44.236 E22.78995
G1 X16.171 Y44.306 E22.80034
G1 X15.833 Y44.417 E22.81809
G1 X15.604 Y44.484 E22.82999
G1 X15.198 Y44.593 E22.85096
G1 X14.947 Y44.654 E22.86385
G1 X14.947 Y44.653 E22.8639
G1 X14.943 Y44.654 E22.86411
G1 X14.943 Y44.655 E22.86416
G1 X14.901 Y44.666 E22.86632
G1 X14.776 Y44.694 E22.87271
G1 X14.775 Y44.692 E22.87282
G1 X14.728 Y44.703 E22.87523
G1 X14.729 Y44.705 E22.87534
G1 X14.684 Y44.715 E22.87764
G1 X14.301 Y44.792 E22.89713
G1 X14.047 Y44.835 E22.90999
G1 X13.812 Y44.864 E22.9218
G1 X13.602 Y44.891 E22.93236
G1 X13.548 Y44.898 E22.93508
G1 X13.177 Y44.936 E22.95369
G1 X12.818 Y44.965 E22.97165
G1 X12.626 Y44.977 E22.98125
G1 X12.27 Y44.99 E22.99903
G1 X11.917 Y44.993 E23.01664
G1 X11.645 Y44.988 E23.03021
G1 X11.096 Y44.961 E23.05763
G1 X10.803 Y44.939 E23.07229
G1 X10.709 Y44.93 E23.077
G1 X10.391 Y44.897 E23.09295
G1 X10.285 Y44.884 E23.09828
G1 X9.995 Y44.841 E23.11291
G1 X9.237 Y44.706 E23.15132
G1 X9.132 Y44.685 E23.15666
G1 X8.536 Y44.563 E23.18701
G1 X8.263 Y44.515 E23.20084
G1 X8.218 Y44.507 E23.20312
G1 X7.408 Y44.349 E23.24429
G1 X4.761 Y43.914 E23.37812
G1 X2.101 Y43.558 E23.51202
G1 X-.568 Y43.282 E23.64588
G1 X-3.244 Y43.086 E23.77975
G1 X-5.925 Y42.969 E23.91363
G1 X-8.607 Y42.932 E24.04745
G1 X-10.444 Y42.972 E24.13912
G1 X-10.444 Y42.968 E24.13932
G1 X-10.996 Y42.976 E24.16686
G1 X-11.512 Y42.988 E24.19261
G1 X-11.529 Y42.988 E24.19346
G1 X-12.083 Y42.993 E24.2211
G1 X-12.355 Y42.988 E24.23467
G1 X-12.904 Y42.961 E24.26209
G1 X-13.197 Y42.939 E24.27675
G1 X-13.291 Y42.93 E24.28146
G1 X-13.609 Y42.897 E24.29741
G1 X-13.715 Y42.884 E24.30274
G1 X-14.005 Y42.841 E24.31737
G1 X-14.432 Y42.765 E24.33901
G1 X-14.814 Y42.686 E24.35847
G1 X-15.009 Y42.64 E24.36846
G1 X-15.27 Y42.575 E24.38188
G1 X-15.599 Y42.488 E24.39886
G1 X-15.865 Y42.408 E24.41272
G1 X-16.12 Y42.324 E24.42611
G1 X-16.175 Y42.306 E24.429
G1 X-16.189 Y42.301 E24.42974
G1 X-16.189 Y42.302 E24.42979
G1 X-16.208 Y42.295 E24.4308
G1 X-16.333 Y42.251 E24.43741
G1 X-16.403 Y42.224 E24.44116
G1 X-16.742 Y42.095 E24.45925
G1 X-16.984 Y41.995 E24.47232
G1 X-17.222 Y41.898 E24.48514
G1 X-17.402 Y41.818 E24.49497
G1 X-18.062 Y41.505 E24.53141
G1 X-18.233 Y41.425 E24.54083
G1 X-20.68 Y40.324 E24.6747
G1 X-23.159 Y39.297 E24.80857
G1 X-25.667 Y38.344 E24.94242
G1 X-28.203 Y37.467 E25.07629
