;FLAVOR:Marlin
;TIME:1313
;Filament used: 2.66588m
;Layer height: 0.3
;MINX:-25.962
;MINY:-37.173
;MINZ:0.3
;MAXX:105
;MAXY:37.181
;MAXZ:17.7
;Generated with Cura_SteamEngine 4.5.0
M140 S70
M105
M190 S70
M104 S215
M105
M109 S215
M82 ;absolute extrusion mode
G28 ;Home
;Prime the extruder
G92 E0
G1 F200 E3
G92 E0
G92 E0
G92 E0
G1 F600 E-1
;LAYER_COUNT:59
;LAYER:0
M107
G0 F4500 X-18.219 Y-.27 Z0.3
;TYPE:SKIRT
G1 F600 E0
G1 F3000 X-18.013 Y-2.995 E0.13634
G1 X-17.876 Y-5.958 E0.28432
G1 X-17.795 Y-6.623 E0.31774
G1 X-17.464 Y-7.976 E0.38724
G1 X-17.316 Y-8.51 E0.41488
G1 X-16.663 Y-11.149 E0.55051
G1 X-16.079 Y-13.823 E0.68706
G1 X-15.577 Y-16.495 E0.8227
G1 X-15.151 Y-19.169 E0.95779
G1 X-14.795 Y-21.907 E1.09554
G1 X-14.519 Y-24.614 E1.23129
G1 X-14.324 Y-27.284 E1.36485
G1 X-14.191 Y-30.304 E1.51567
G1 X-14.075 Y-31.552 E1.5782
G1 X-13.998 Y-32.155 E1.60853
G1 X-13.888 Y-32.68 E1.63529
G1 X-13.701 Y-33.183 E1.66206
G1 X-13.29 Y-33.933 E1.70473
G1 X-12.888 Y-34.59 E1.74316
G1 X-12.575 Y-35.025 E1.76989
G1 X-12.2 Y-35.408 E1.79664
G1 X-11.108 Y-36.179 E1.86333
G1 X-10.641 Y-36.472 E1.89083
G1 X-10.165 Y-36.72 E1.91761
G1 X-9.658 Y-36.895 E1.94437
G1 X-8.979 Y-37.023 E1.97884
G1 X-7.886 Y-37.159 E2.03379
G1 X-7.179 Y-37.173 E2.06907
G1 X-6.469 Y-37.117 E2.1046
G1 X-4.934 Y-36.972 E2.18152
G1 X-2.21 Y-36.793 E2.31772
G1 X0.483 Y-36.692 E2.45217
G1 X3.23 Y-36.666 E2.58922
G1 X6.721 Y-36.746 E2.76343
G1 X7.774 Y-36.789 E2.81601
G1 X8.283 Y-36.774 E2.84142
G1 X8.993 Y-36.702 E2.87702
G1 X9.746 Y-36.604 E2.9149
G1 X10.271 Y-36.495 E2.94166
G1 X10.774 Y-36.309 E2.96841
G1 X11.569 Y-35.872 E3.01367
G1 X12.249 Y-35.458 E3.05339
G1 X13.123 Y-34.806 E3.10779
G1 X14.261 Y-33.892 E3.18061
G1 X16.437 Y-32.243 E3.31682
G1 X18.635 Y-30.672 E3.45161
G1 X20.922 Y-29.133 E3.58914
G1 X23.212 Y-27.685 E3.72431
G1 X25.545 Y-26.3 E3.85967
G1 X27.963 Y-24.957 E3.99766
G1 X30.337 Y-23.723 E4.13115
G1 X32.841 Y-22.511 E4.26994
G1 X35.297 Y-21.407 E4.40428
G1 X37.831 Y-20.351 E4.54124
G1 X40.355 Y-19.387 E4.67603
G1 X44.258 Y-18.035 E4.8821
G1 X44.812 Y-17.789 E4.91235
G1 X45.457 Y-17.435 E4.94905
G1 X46.005 Y-17.065 E4.98204
G1 X46.583 Y-16.592 E5.0193
G1 X46.88 Y-16.328 E5.03913
G1 X47.317 Y-15.848 E5.07151
G1 X47.726 Y-15.308 E5.10531
G1 X48.066 Y-14.764 E5.13731
G1 X48.448 Y-14.012 E5.17939
G1 X48.717 Y-13.307 E5.21704
G1 X48.928 Y-12.513 E5.25803
G1 X49.042 Y-11.805 E5.29381
G1 X49.088 Y-11.044 E5.33184
G1 X49.092 Y-10.514 E5.35828
G1 X49.061 Y-9.969 E5.38552
G1 X48.917 Y-7.245 E5.52161
G1 X48.849 Y-4.516 E5.6578
G1 X48.859 Y-1.782 E5.7942
G1 X48.944 Y0.91 E5.92857
G1 X49.01 Y1.946 E5.98036
G1 X49.074 Y3.217 E6.04385
G1 X49.094 Y4.094 E6.08762
G1 X49.03 Y5.046 E6.13522
G1 X48.886 Y5.805 E6.17376
G1 X48.693 Y6.468 E6.20821
G1 X48.42 Y7.152 E6.24496
G1 X48.096 Y7.778 E6.28012
G1 X47.608 Y8.53 E6.32485
G1 X47.126 Y9.123 E6.36297
G1 X46.618 Y9.628 E6.39871
G1 X46.243 Y9.966 E6.4239
G1 X43.853 Y12.001 E6.5805
G1 X41.835 Y13.826 E6.71625
G1 X39.864 Y15.711 E6.85231
G1 X37.94 Y17.656 E6.9888
G1 X36.09 Y19.638 E7.12407
G1 X34.283 Y21.688 E7.2604
G1 X32.544 Y23.774 E7.39589
G1 X30.857 Y25.919 E7.53204
G1 X29.236 Y28.105 E7.66781
G1 X27.666 Y30.353 E7.80461
G1 X26.172 Y32.625 E7.94027
G1 X25.58 Y33.589 E7.99671
G1 X24.928 Y34.622 E8.05765
G1 X24.609 Y35.053 E8.08441
G1 X24.229 Y35.432 E8.11118
G1 X23.797 Y35.75 E8.13794
G1 X23.216 Y36.051 E8.17059
G1 X22.101 Y36.527 E8.23107
G1 X21.592 Y36.696 E8.25783
G1 X21.064 Y36.788 E8.28457
G1 X20.417 Y36.793 E8.31685
G1 X19.257 Y36.667 E8.37506
G1 X18.474 Y36.562 E8.41448
G1 X17.601 Y36.421 E8.45859
G1 X16.56 Y36.235 E8.51135
G1 X13.879 Y35.834 E8.6466
G1 X11.177 Y35.508 E8.78238
G1 X8.449 Y35.256 E8.91906
G1 X5.729 Y35.083 E9.05503
G1 X2.998 Y34.987 E9.19137
G1 X0.266 Y34.966 E9.32767
G1 X-2.427 Y35.023 E9.46206
G1 X-5.188 Y35.16 E9.59997
G1 X-7.88 Y35.37 E9.73468
G1 X-10.594 Y35.659 E9.87085
G1 X-13.334 Y36.029 E10.00879
G1 X-15.992 Y36.466 E10.14318
G1 X-18.256 Y36.897 E10.25816
G1 X-19.445 Y37.068 E10.31809
G1 X-20.246 Y37.16 E10.35831
G1 X-20.781 Y37.181 E10.38503
G1 X-21.314 Y37.122 E10.41178
G1 X-21.953 Y36.94 E10.44493
G1 X-22.712 Y36.646 E10.48554
G1 X-23.272 Y36.409 E10.51587
G1 X-23.748 Y36.162 E10.54263
G1 X-24.182 Y35.846 E10.56941
G1 X-24.565 Y35.47 E10.59619
G1 X-24.887 Y35.042 E10.62291
G1 X-25.172 Y34.515 E10.6528
G1 X-25.678 Y33.382 E10.71471
G1 X-25.855 Y32.876 E10.74145
G1 X-25.955 Y32.349 E10.76821
G1 X-25.962 Y31.607 E10.80523
G1 X-25.907 Y31.018 E10.83475
G1 X-25.852 Y30.517 E10.85989
G1 X-25.766 Y29.814 E10.89523
G1 X-25.662 Y29.288 E10.92198
G1 X-24.429 Y26.158 E11.08981
G1 X-23.492 Y23.654 E11.2232
G1 X-22.591 Y21.024 E11.36189
G1 X-21.794 Y18.465 E11.49561
G1 X-21.057 Y15.836 E11.63183
G1 X-20.382 Y13.14 E11.77049
G1 X-19.804 Y10.511 E11.90478
G1 X-19.299 Y7.861 E12.03937
G1 X-18.86 Y5.15 E12.17638
G1 X-18.502 Y2.454 E12.31207
G1 X-18.219 Y-.27 E12.4487
G0 F4500 X-17.82 Y-.235
G1 F3000 X-17.615 Y-2.946 E12.58434
G1 X-17.477 Y-5.94 E12.73387
G1 X-17.4 Y-6.563 E12.76519
G1 X-17.076 Y-7.875 E12.83261
G1 X-16.935 Y-8.387 E12.8591
G1 X-16.272 Y-11.064 E12.99669
G1 X-15.689 Y-13.736 E13.13314
G1 X-15.182 Y-16.43 E13.2699
G1 X-14.753 Y-19.126 E13.4061
G1 X-14.399 Y-21.848 E13.54304
G1 X-14.119 Y-24.595 E13.6808
G1 X-13.924 Y-27.271 E13.81466
G1 X-13.791 Y-30.287 E13.96527
G1 X-13.677 Y-31.513 E14.0267
G1 X-13.601 Y-32.103 E14.05638
G1 X-13.495 Y-32.597 E14.08159
G1 X-13.208 Y-33.268 E14.118
G1 X-12.942 Y-33.734 E14.14477
G1 X-12.547 Y-34.381 E14.18259
G1 X-12.25 Y-34.789 E14.20776
G1 X-11.892 Y-35.146 E14.23299
G1 X-10.885 Y-35.847 E14.2942
G1 X-10.43 Y-36.132 E14.32099
G1 X-9.98 Y-36.364 E14.34625
G1 X-9.253 Y-36.573 E14.38399
G1 X-8.597 Y-36.672 E14.41708
G1 X-7.838 Y-36.762 E14.45522
G1 X-7.21 Y-36.774 E14.48655
G1 X-6.5 Y-36.718 E14.52208
G1 X-4.962 Y-36.573 E14.59916
G1 X-2.253 Y-36.395 E14.7346
G1 X0.5 Y-36.292 E14.87204
G1 X3.235 Y-36.266 E15.0085
G1 X6.746 Y-36.347 E15.18371
G1 X7.79 Y-36.389 E15.23584
G1 X8.953 Y-36.304 E15.29402
G1 X9.694 Y-36.208 E15.33129
G1 X10.188 Y-36.102 E15.3565
G1 X10.861 Y-35.816 E15.39298
G1 X11.372 Y-35.525 E15.42232
G1 X12.04 Y-35.117 E15.46137
G1 X12.877 Y-34.491 E15.51352
G1 X14.014 Y-33.577 E15.5863
G1 X16.185 Y-31.931 E15.72222
G1 X18.409 Y-30.342 E15.85859
G1 X20.706 Y-28.796 E15.99672
G1 X22.999 Y-27.346 E16.13208
G1 X25.368 Y-25.94 E16.26951
G1 X27.748 Y-24.618 E16.40534
G1 X30.185 Y-23.351 E16.54237
G1 X32.624 Y-22.171 E16.67755
G1 X35.146 Y-21.037 E16.81551
G1 X37.712 Y-19.968 E16.95419
G1 X40.207 Y-19.014 E17.08745
G1 X44.127 Y-17.657 E17.29441
G1 X44.62 Y-17.438 E17.32132
G1 X45.265 Y-17.084 E17.35803
G1 X45.752 Y-16.755 E17.38735
G1 X46.33 Y-16.282 E17.42461
G1 X46.998 Y-15.606 E17.47203
G1 X47.407 Y-15.066 E17.50582
G1 X47.709 Y-14.583 E17.53424
G1 X48.091 Y-13.831 E17.57632
G1 X48.331 Y-13.204 E17.60982
G1 X48.542 Y-12.41 E17.65081
G1 X48.643 Y-11.781 E17.68259
G1 X48.689 Y-11.02 E17.72062
G1 X48.692 Y-10.518 E17.74567
G1 X48.662 Y-9.995 E17.7718
G1 X48.517 Y-7.276 E17.90765
G1 X48.449 Y-4.525 E18.04494
G1 X48.459 Y-1.769 E18.18244
G1 X48.544 Y0.948 E18.31806
G1 X48.61 Y1.971 E18.3692
G1 X48.674 Y3.237 E18.43244
G1 X48.694 Y4.103 E18.47566
G1 X48.637 Y4.971 E18.51906
G1 X48.493 Y5.73 E18.5576
G1 X48.321 Y6.32 E18.58826
G1 X48.048 Y7.004 E18.625
G1 X47.76 Y7.56 E18.65624
G1 X47.272 Y8.312 E18.70096
G1 X46.844 Y8.839 E18.73484
G1 X46.336 Y9.344 E18.77057
G1 X45.92 Y9.716 E18.79841
G1 X43.609 Y11.683 E18.94982
G1 X41.573 Y13.523 E19.08673
G1 X39.568 Y15.441 E19.22516
G1 X37.663 Y17.367 E19.36031
G1 X35.781 Y19.384 E19.49794
G1 X33.992 Y21.412 E19.63286
G1 X32.22 Y23.537 E19.7709
G1 X30.536 Y25.679 E19.90683
G1 X28.919 Y27.86 E20.04229
G1 X27.337 Y30.126 E20.18016
G1 X25.84 Y32.402 E20.31608
G1 X25.24 Y33.379 E20.37328
G1 X24.59 Y34.409 E20.43404
G1 X24.287 Y34.813 E20.45923
G1 X23.924 Y35.166 E20.4845
G1 X23.51 Y35.456 E20.50971
G1 X23.046 Y35.689 E20.53562
G1 X21.947 Y36.158 E20.59523
G1 X21.466 Y36.315 E20.62047
G1 X20.967 Y36.395 E20.64569
G1 X20.45 Y36.394 E20.67148
G1 X19.304 Y36.269 E20.72899
G1 X18.527 Y36.166 E20.7681
G1 X17.665 Y36.026 E20.81167
G1 X16.652 Y35.845 E20.863
G1 X13.919 Y35.436 E21.00087
G1 X11.186 Y35.106 E21.13821
G1 X8.51 Y34.859 E21.27229
G1 X5.734 Y34.683 E21.41106
G1 X3.015 Y34.587 E21.5468
G1 X0.261 Y34.566 E21.6842
G1 X-2.456 Y34.624 E21.81978
G1 X-5.203 Y34.76 E21.957
G1 X-7.92 Y34.972 E22.09296
G1 X-10.649 Y35.262 E22.22988
G1 X-13.351 Y35.627 E22.36591
G1 X-16.092 Y36.077 E22.50448
G1 X-18.331 Y36.504 E22.6182
G1 X-19.5 Y36.671 E22.67712
G1 X-20.291 Y36.762 E22.71684
G1 X-20.796 Y36.78 E22.74205
G1 X-21.298 Y36.717 E22.76729
G1 X-21.809 Y36.567 E22.79386
G1 X-22.568 Y36.273 E22.83447
G1 X-23.115 Y36.041 E22.86411
G1 X-23.563 Y35.806 E22.88935
G1 X-23.968 Y35.503 E22.91459
G1 X-24.32 Y35.141 E22.93978
G1 X-24.725 Y34.517 E22.97689
G1 X-24.971 Y33.999 E23.0055
G1 X-25.311 Y33.222 E23.04781
G1 X-25.476 Y32.744 E23.07304
G1 X-25.564 Y32.246 E23.09827
G1 X-25.564 Y31.644 E23.12831
G1 X-25.509 Y31.055 E23.15782
G1 X-25.369 Y29.862 E23.21775
G1 X-25.268 Y29.367 E23.24295
G1 X-24.078 Y26.359 E23.40434
G1 X-23.103 Y23.756 E23.54301
G1 X-22.23 Y21.209 E23.67734
G1 X-21.401 Y18.544 E23.81658
G1 X-20.667 Y15.927 E23.95218
G1 X-19.996 Y13.247 E24.09002
G1 X-19.414 Y10.601 E24.22518
G1 X-18.905 Y7.929 E24.36088
G1 X-18.463 Y5.2 E24.49881
G1 X-18.106 Y2.511 E24.63414
G1 X-17.82 Y-.235 E24.77188
G1 F600 E23.77188
;MESH:smiling_rabbit.stl
G0 F4500 X-11.585 Y11.572
G0 X-10.436 Y12.146
G0 X-8.56 Y22.147
G0 X-8.542 Y22.245
;TYPE:WALL-INNER
G1 F600 E24.77188
G1 F3000 X-8.658 Y22.516 E24.78659
G1 X-9.373 Y24.176 E24.87676
G1 X-10.838 Y26.393 E25.00933
G1 X-12.757 Y28.571 E25.15416
G1 X-14.936 Y30.49 E25.29901
G1 X-17.106 Y31.924 E25.42878
G1 X-19.093 Y32.788 E25.53688
G1 X-20.591 Y32.981 E25.61223
G1 X-21.415 Y32.642 E25.65668
G1 X-21.773 Y31.848 E25.70014
G1 X-21.611 Y30.374 E25.77412
G1 X-20.777 Y28.4 E25.88103
G1 X-19.332 Y26.198 E26.01243
G1 X-17.365 Y23.954 E26.1613
G1 X-15.191 Y22.04 E26.30581
G1 X-12.973 Y20.573 E26.43848
G1 X-11.012 Y19.733 E26.54491
G1 X-10.342 Y19.6 E26.57899
G1 X-10.084 Y19.549 E26.59211
G1 X-10.202 Y19.315 E26.59997
G1 X-10.203 Y19.314 E26.60004
G1 X-10.441 Y18.847 E26.62619
G1 X-10.979 Y15.45 E26.79778
G1 X-10.455 Y12.14 E26.96498
G1 X-8.879 Y8.993 E27.14057
G1 X-6.512 Y6.626 E27.30757
G1 X-4.521 Y5.573 E27.41994
G1 X-6.858 Y0.898 E27.6807
G1 X-7.643 Y-2.179 E27.83913
G1 X-7.704 Y-2.42 E27.85153
G1 X-7.926 Y-2.308 E27.85909
G1 X-9.013 Y-1.754 E27.91996
G1 X-9.805 Y-1.608 E27.96014
G1 X-9.894 Y-1.055 E27.98809
G1 X-9.945 Y-.956 E27.99364
G1 X-10.02 Y-.881 E27.99893
G1 X-10.125 Y-.829 E28.00478
G1 X-10.241 Y-.812 E28.01063
G1 X-10.351 Y-.83 E28.01619
G1 X-10.442 Y-.876 E28.02128
G1 X-10.525 Y-.961 E28.0272
G1 X-10.577 Y-1.066 E28.03305
G1 X-10.657 Y-1.559 E28.05797
G1 X-11.926 Y-2.189 E28.12865
G1 X-12.382 Y-2.6 E28.15928
G1 X-12.827 Y-2.372 E28.18422
G1 X-12.935 Y-2.355 E28.18968
G1 X-13.055 Y-2.375 E28.19575
G1 X-13.146 Y-2.421 E28.20083
G1 X-13.232 Y-2.509 E28.20697
G1 X-13.279 Y-2.6 E28.21208
G1 X-13.296 Y-2.709 E28.21759
G1 X-13.276 Y-2.829 E28.22365
G1 X-13.225 Y-2.927 E28.22917
G1 X-12.861 Y-3.289 E28.25478
G1 X-13.137 Y-3.829 E28.28503
G1 X-13.296 Y-4.841 E28.33614
G1 X-13.301 Y-5.274 E28.35775
G1 X-13.617 Y-5.597 E28.38029
G1 X-13.665 Y-5.69 E28.38551
G1 X-13.682 Y-5.802 E28.39116
G1 X-13.665 Y-5.915 E28.39686
G1 X-13.617 Y-6.009 E28.40213
G1 X-13.53 Y-6.094 E28.4082
G1 X-13.417 Y-6.15 E28.41449
G1 X-12.93 Y-6.248 E28.43927
G1 X-12.675 Y-6.751 E28.46741
G1 X-11.692 Y-7.734 E28.53676
G1 X-11.751 Y-8.117 E28.5561
G1 X-11.731 Y-8.237 E28.56217
G1 X-11.685 Y-8.328 E28.56725
G1 X-11.601 Y-8.41 E28.57311
G1 X-11.6 Y-8.411 E28.57318
G1 X-11.499 Y-8.462 E28.57883
G1 X-11.395 Y-8.478 E28.58408
G1 X-11.276 Y-8.458 E28.5901
G1 X-11.204 Y-8.421 E28.59413
G1 X-11.203 Y-8.42 E28.59421
G1 X-10.808 Y-7.971 E28.62404
G1 X-10.062 Y-8.088 E28.66171
G1 X-9.259 Y-7.969 E28.70221
G1 X-8.732 Y-7.865 E28.72901
G1 X-8.474 Y-7.815 E28.74212
G1 X-8.494 Y-8.077 E28.75002
G1 X-8.667 Y-10.245 E28.85852
G1 X-8.219 Y-15.908 E29.14193
G1 X-8.157 Y-16.29 E29.16124
G1 X-6.858 Y-21.387 E29.42366
G1 X-5.334 Y-24.433 E29.59358
G1 X-5.245 Y-24.612 E29.60356
G1 X-5.424 Y-24.699 E29.60996
G1 X-5.425 Y-24.7 E29.61003
G1 X-6.694 Y-25.326 E29.68062
G1 X-7.947 Y-26.34 E29.76104
G1 X-9.003 Y-27.624 E29.84398
G1 X-9.709 Y-29.024 E29.92221
G1 X-9.991 Y-30.359 E29.99028
G1 X-9.859 Y-31.487 E30.04694
G1 X-9.371 Y-32.31 E30.09467
G1 X-8.533 Y-32.847 E30.14433
G1 X-7.47 Y-32.988 E30.19783
G1 X-6.135 Y-32.737 E30.2656
G1 X-4.743 Y-32.068 E30.34265
G1 X-3.44 Y-31.03 E30.42576
G1 X-2.334 Y-29.686 E30.5126
G1 X-1.644 Y-28.285 E30.59051
G1 X0.388 Y-28.928 E30.69684
G1 X2.424 Y-28.282 E30.80341
G1 X2.927 Y-29.303 E30.86019
G1 X3.977 Y-30.601 E30.94349
G1 X5.223 Y-31.608 E31.02341
G1 X6.681 Y-32.343 E31.10487
G1 X7.954 Y-32.597 E31.16964
G1 X9.086 Y-32.464 E31.2265
G1 X9.945 Y-31.954 E31.27634
G1 X10.447 Y-31.141 E31.32401
G1 X10.595 Y-30.026 E31.38012
G1 X10.34 Y-28.747 E31.44519
G1 X9.666 Y-27.349 E31.52262
G1 X8.627 Y-26.043 E31.60588
G1 X7.283 Y-24.939 E31.69265
G1 X6.702 Y-24.654 E31.72494
G1 X6.144 Y-24.364 E31.75631
G1 X7.632 Y-21.387 E31.92236
G1 X8.978 Y-16.111 E32.19401
G1 X9.442 Y-10.244 E32.48763
G1 X9.24 Y-7.706 E32.61465
G1 X9.221 Y-7.454 E32.62726
G1 X9.47 Y-7.492 E32.63489
G1 X9.471 Y-7.493 E32.63496
G1 X10.816 Y-7.705 E32.70289
G1 X11.58 Y-7.585 E32.74148
G1 X11.981 Y-8.036 E32.77159
G1 X12.054 Y-8.074 E32.77569
G1 X12.175 Y-8.091 E32.78179
G1 X12.278 Y-8.074 E32.787
G1 X12.378 Y-8.021 E32.79264
G1 X12.461 Y-7.937 E32.79853
G1 X12.507 Y-7.848 E32.80353
G1 X12.524 Y-7.729 E32.80953
G1 X12.464 Y-7.349 E32.82872
G1 X13.422 Y-6.392 E32.89628
G1 X13.731 Y-5.834 E32.9281
G1 X14.21 Y-5.757 E32.95231
G1 X14.312 Y-5.704 E32.95804
G1 X14.387 Y-5.629 E32.96333
G1 X14.441 Y-5.522 E32.96931
G1 X14.457 Y-5.419 E32.97451
G1 X14.437 Y-5.299 E32.98058
G1 X14.389 Y-5.205 E32.98585
G1 X14.013 Y-4.828 E33.01241
G1 X14.071 Y-4.454 E33.03129
G1 X13.918 Y-3.48 E33.08048
G1 X13.651 Y-2.897 E33.11247
G1 X14.002 Y-2.535 E33.13763
G1 X14.053 Y-2.432 E33.14336
G1 X14.07 Y-2.321 E33.14897
G1 X14.053 Y-2.215 E33.15432
G1 X14.002 Y-2.117 E33.15983
G1 X13.919 Y-2.036 E33.16562
G1 X13.818 Y-1.985 E33.17126
G1 X13.713 Y-1.969 E33.17656
G1 X13.597 Y-1.988 E33.18243
G1 X13.156 Y-2.213 E33.20713
G1 X12.699 Y-1.802 E33.23779
G1 X11.833 Y-1.36 E33.2863
G1 X11.452 Y-1.315 E33.30544
G1 X11.35 Y-.671 E33.33797
G1 X11.298 Y-.571 E33.34359
G1 X11.216 Y-.491 E33.34931
G1 X11.119 Y-.443 E33.35471
G1 X11 Y-.425 E33.36071
G1 X10.896 Y-.441 E33.36596
G1 X10.803 Y-.489 E33.37118
G1 X10.718 Y-.576 E33.37725
G1 X10.668 Y-.678 E33.38292
G1 X10.578 Y-1.234 E33.41102
G1 X9.808 Y-1.355 E33.4499
G1 X9.099 Y-1.717 E33.48962
G1 X8.622 Y-1.977 E33.51672
G1 X8.397 Y-2.099 E33.52949
G1 X8.335 Y-1.851 E33.53719
G1 X8.334 Y-1.85 E33.53727
G1 X7.656 Y0.81 E33.67422
G1 X5.561 Y5.035 E33.90949
G1 X5.048 Y5.561 E33.94615
G1 X4.858 Y5.755 E33.9597
G1 X5.1 Y5.878 E33.96778
G1 X6.418 Y6.548 E34.04154
G1 X8.887 Y9.001 E34.21518
G1 X10.443 Y12.055 E34.38618
G1 X10.98 Y15.45 E34.55767
G1 X10.4 Y19.111 E34.74259
G1 X12.933 Y20.169 E34.87954
G1 X15.13 Y21.61 E35.01063
G1 X17.375 Y23.577 E35.15954
G1 X19.246 Y25.703 E35.30083
G1 X20.723 Y27.919 E35.43369
G1 X21.607 Y29.954 E35.54439
G1 X21.786 Y31.44 E35.61906
G1 X21.436 Y32.251 E35.66313
G1 X20.625 Y32.601 E35.7072
G1 X19.141 Y32.422 E35.78177
G1 X17.153 Y31.57 E35.88968
G1 X14.936 Y30.104 E36.02228
G1 X12.757 Y28.185 E36.16714
G1 X10.838 Y26.006 E36.31199
G1 X9.406 Y23.839 E36.44158
G1 X8.781 Y22.429 E36.51853
G1 X8.665 Y22.166 E36.53287
G1 X8.46 Y22.367 E36.5413
G1 X6.458 Y24.333 E36.68129
G1 X3.396 Y25.893 E36.85274
G1 X0.001 Y26.43 E37.02422
G1 X-3.394 Y25.893 E37.1957
G1 X-6.453 Y24.335 E37.36697
G1 X-8.334 Y22.453 E37.49972
G1 X-8.542 Y22.245 E37.50832
G0 F4500 X-8.408 Y22.945
;TYPE:WALL-OUTER
G1 F3000 X-8.524 Y23.216 E37.52302
G1 X-9.019 Y24.367 E37.58553
G1 X-10.516 Y26.632 E37.72099
G1 X-12.474 Y28.854 E37.86874
